!!!OTL: ES GEHT EIN DUNKLE WOLKEN REIN
!!!ARE: Europa, Mitteleuropa, Deutschland
!!!SCT: E0769B
!!!YEM: Copyright 1995, estate of Helmut Schaffrath.
**kern
*ICvox
*Ivox
*M3/4
*k[b-e-]
*g:
{4g
=1
2dd
4dd
=2
2cc
4a
=3
2b-
4cc
=4
2a}
{4dd
=5
2dd
4dd
=6
2cc
4a
=7
2b-
4cc
=8
2a}
{4g
=9
2fn
4e
=10
2d
4dd
=11
2.ffn
=12
2.dd}
=13
{4cc
4b-
4cc
=14
2a
4a
=15
2g}
==
!!!AGN: Abschieds - Lied
!!!ONB: ESAC (Essen Associative Code) Database: ERK2
!!!AMT: simple triple
!!!AIN: vox
!!!EED: Helmut Schaffrath
!!!EEV: 1.0
*-
